src/assets/images/fsp_games.svg

<svg width="159" height="49" viewBox="0 0 159 49" fill="none" xmlns="http://www.w3.org/2000/svg">
<g clip-path="url(#clip0_652_42853)">
<mask id="mask0_652_42853" style="mask-type:luminance" maskUnits="userSpaceOnUse" x="0" y="0" width="159" height="49">
<path d="M159 0H0V49H159V0Z" fill="white"/>
</mask>
<g mask="url(#mask0_652_42853)">
<path d="M24.6563 0H12.3281V12.1439H24.6563V0Z" fill="#0000FF"/>
<path d="M36.9843 0H24.6562V12.1439H36.9843V0Z" fill="#0000FF"/>
<path d="M12.3281 12.1416H0V24.2855H12.3281V12.1416Z" fill="#0000FF"/>
<path d="M12.3281 0H0V12.1439H12.3281V0Z" fill="#0000FF"/>
<path d="M24.6563 24.2891H12.3281V36.433H24.6563V24.2891Z" fill="#0000FF"/>
<path d="M12.3281 36.4307H0V48.5746H12.3281V36.4307Z" fill="#0000FF"/>
<path d="M47.9098 5.34961H47.0557V42.8106H47.9098V5.34961Z" fill="#0000FF"/>
<path d="M71.2727 36.7979C67.9211 36.7979 65.367 35.9234 63.6104 34.1745C61.874 32.4256 61.0059 29.7319 61.0059 26.0933C61.0059 23.7212 61.4097 21.7411 62.2173 20.153C63.0249 18.5649 64.2161 17.3788 65.791 16.5948C67.3659 15.7907 69.284 15.3887 71.5453 15.3887C72.9586 15.3887 74.2407 15.5394 75.3916 15.841C76.5424 16.1425 77.5318 16.6049 78.3596 17.2281C79.2076 17.8311 79.8537 18.595 80.2979 19.5197C80.7622 20.4445 80.9944 21.5401 80.9944 22.8065H78.0567C78.0567 21.922 77.8952 21.1682 77.5721 20.545C77.2491 19.9017 76.7847 19.379 76.179 18.977C75.5935 18.5749 74.907 18.2935 74.1196 18.1327C73.3321 17.9517 72.4942 17.8613 71.6059 17.8613C70.3944 17.8613 69.3142 18.0121 68.3653 18.3136C67.4163 18.6151 66.6188 19.0875 65.9727 19.7308C65.3266 20.3741 64.832 21.1983 64.4887 22.2034C64.1455 23.2086 63.9739 24.4047 63.9739 25.7917V26.425C63.9739 28.2945 64.2565 29.8123 64.8219 30.9782C65.4074 32.1442 66.2453 32.9985 67.3356 33.5413C68.4259 34.064 69.7382 34.3253 71.2727 34.3253C72.8274 34.3253 74.1095 34.1142 75.119 33.6921C76.1285 33.2498 76.8756 32.5864 77.3601 31.7019C77.8649 30.8174 78.1173 29.7017 78.1173 28.3548V27.993H70.7881V25.5505H81.0247V36.4361H78.8441L78.5413 33.8127C77.9961 34.5163 77.35 35.0892 76.603 35.5314C75.856 35.9737 75.0281 36.2953 74.1196 36.4964C73.2312 36.6974 72.2822 36.7979 71.2727 36.7979ZM89.5017 36.7979C88.9162 36.7979 88.3306 36.7275 87.7451 36.5868C87.1596 36.4461 86.6145 36.2149 86.1097 35.8933C85.6049 35.5716 85.2011 35.1294 84.8983 34.5665C84.5954 33.9835 84.444 33.2599 84.444 32.3954C84.444 31.3099 84.7065 30.4153 85.2314 29.7117C85.7564 29.0082 86.4832 28.4654 87.412 28.0834C88.3609 27.6814 89.4815 27.41 90.7737 27.2693C92.0659 27.1085 93.4691 27.0281 94.9834 27.0281V25.2188C94.9834 24.6359 94.8825 24.1333 94.6805 23.7111C94.4786 23.289 94.1152 22.9673 93.5903 22.7462C93.0855 22.505 92.3586 22.3844 91.4097 22.3844C90.5011 22.3844 89.7743 22.505 89.2291 22.7462C88.7042 22.9673 88.3306 23.2588 88.1085 23.6207C87.9066 23.9825 87.8057 24.3846 87.8057 24.8268V25.2791H85.2314C85.2112 25.1786 85.2011 25.0781 85.2011 24.9776C85.2011 24.8771 85.2011 24.7565 85.2011 24.6157C85.2011 23.6508 85.4636 22.8467 85.9885 22.2034C86.5337 21.5401 87.2908 21.0475 88.26 20.7259C89.2291 20.3842 90.3396 20.2133 91.5914 20.2133C92.924 20.2133 94.0345 20.4043 94.9228 20.7862C95.8314 21.1682 96.5078 21.7109 96.952 22.4145C97.4163 23.1181 97.6485 23.9624 97.6485 24.9474V33.5413C97.6485 33.9232 97.7394 34.1946 97.9211 34.3554C98.1028 34.4962 98.3249 34.5665 98.5874 34.5665H99.7685V36.3154C99.4859 36.4361 99.1729 36.5366 98.8297 36.617C98.4864 36.7175 98.0927 36.7677 97.6485 36.7677C97.1236 36.7677 96.6895 36.6572 96.3463 36.4361C96.003 36.235 95.7405 35.9536 95.5588 35.5917C95.3771 35.2098 95.256 34.7876 95.1954 34.3253H94.9834C94.62 34.8279 94.1556 35.2701 93.5903 35.6521C93.0451 36.0139 92.4293 36.2953 91.7428 36.4964C91.0564 36.6974 90.3093 36.7979 89.5017 36.7979ZM90.168 34.5665C90.8141 34.5665 91.4198 34.466 91.9851 34.265C92.5706 34.064 93.0855 33.7825 93.5297 33.4207C93.9739 33.0387 94.3272 32.5864 94.5897 32.0637C94.8522 31.5411 94.9834 30.9682 94.9834 30.345V29.0182C93.348 29.0182 91.9548 29.1087 90.804 29.2896C89.6531 29.4705 88.7647 29.7922 88.1388 30.2545C87.5331 30.7169 87.2303 31.3702 87.2303 32.2145C87.2303 32.7573 87.3514 33.1995 87.5937 33.5413C87.836 33.883 88.1792 34.1444 88.6234 34.3253C89.0676 34.4861 89.5824 34.5665 90.168 34.5665ZM102.007 36.4361V20.5751H104.158L104.4 22.9573H104.612C105.016 22.314 105.47 21.7913 105.975 21.3893C106.479 20.9872 107.035 20.6957 107.64 20.5148C108.246 20.3138 108.902 20.2133 109.609 20.2133C110.639 20.2133 111.527 20.4244 112.274 20.8465C113.021 21.2486 113.576 21.9522 113.94 22.9573H114.122C114.505 22.314 114.949 21.8014 115.454 21.4194C115.959 21.0174 116.524 20.7158 117.15 20.5148C117.776 20.3138 118.442 20.2133 119.149 20.2133C120.118 20.2133 120.966 20.3842 121.693 20.7259C122.42 21.0475 122.985 21.5903 123.389 22.3542C123.813 23.098 124.025 24.1031 124.025 25.3696V36.4361H121.36V25.7917C121.36 25.1485 121.279 24.6157 121.118 24.1936C120.976 23.7714 120.764 23.4498 120.482 23.2287C120.199 22.9874 119.866 22.8166 119.482 22.7161C119.119 22.6155 118.725 22.5653 118.301 22.5653C117.594 22.5653 116.938 22.7462 116.332 23.1081C115.747 23.4699 115.272 23.9926 114.909 24.6761C114.546 25.3595 114.364 26.1737 114.364 27.1185V36.4361H111.699V25.7917C111.699 25.1485 111.618 24.6157 111.456 24.1936C111.295 23.7714 111.083 23.4498 110.82 23.2287C110.558 22.9874 110.235 22.8166 109.851 22.7161C109.488 22.6155 109.104 22.5653 108.7 22.5653C107.974 22.5653 107.297 22.7462 106.671 23.1081C106.066 23.4699 105.581 23.9926 105.218 24.6761C104.854 25.3595 104.672 26.1737 104.672 27.1185V36.4361H102.007ZM134.423 36.7979C132.849 36.7979 131.516 36.5064 130.426 35.9234C129.356 35.3204 128.538 34.4057 127.973 33.1794C127.427 31.9532 127.155 30.3952 127.155 28.5056C127.155 26.5959 127.427 25.0379 127.973 23.8317C128.538 22.6055 129.366 21.7009 130.456 21.1179C131.546 20.5148 132.909 20.2133 134.545 20.2133C136.039 20.2133 137.291 20.5048 138.3 21.0877C139.31 21.6506 140.067 22.505 140.571 23.6508C141.096 24.7766 141.359 26.1938 141.359 27.9025V29.169H129.911C129.951 30.4354 130.133 31.4808 130.456 32.305C130.799 33.1091 131.304 33.7021 131.97 34.0841C132.637 34.4459 133.475 34.6268 134.484 34.6268C135.171 34.6268 135.766 34.5464 136.271 34.3856C136.796 34.2047 137.23 33.9534 137.573 33.6317C137.937 33.3101 138.209 32.9282 138.391 32.4859C138.573 32.0436 138.674 31.5612 138.694 31.0385H141.298C141.278 31.8828 141.117 32.6668 140.814 33.3905C140.511 34.0941 140.067 34.6972 139.481 35.1997C138.896 35.7023 138.179 36.0943 137.331 36.3757C136.483 36.6572 135.514 36.7979 134.423 36.7979ZM129.971 27.1788H138.603C138.603 26.2943 138.502 25.5505 138.3 24.9474C138.098 24.3444 137.805 23.8519 137.422 23.4699C137.058 23.088 136.624 22.8166 136.119 22.6557C135.635 22.4748 135.08 22.3844 134.454 22.3844C133.525 22.3844 132.738 22.5552 132.091 22.897C131.445 23.2387 130.951 23.7614 130.607 24.465C130.264 25.1686 130.052 26.0732 129.971 27.1788ZM150.229 36.7979C149.139 36.7979 148.179 36.6873 147.352 36.4662C146.524 36.2451 145.837 35.9234 145.292 35.5013C144.747 35.0791 144.333 34.5766 144.051 33.9936C143.768 33.4106 143.627 32.7472 143.627 32.0034C143.627 31.9029 143.627 31.8125 143.627 31.7321C143.627 31.6315 143.637 31.5511 143.657 31.4908H146.292C146.271 31.5712 146.261 31.6416 146.261 31.7019C146.261 31.7622 146.261 31.8225 146.261 31.8828C146.282 32.5864 146.463 33.1392 146.807 33.5413C147.17 33.9433 147.665 34.2248 148.291 34.3856C148.916 34.5464 149.613 34.6268 150.38 34.6268C151.047 34.6268 151.662 34.5464 152.228 34.3856C152.793 34.2047 153.237 33.9433 153.56 33.6016C153.904 33.2397 154.075 32.7874 154.075 32.2447C154.075 31.5813 153.853 31.0787 153.409 30.737C152.985 30.3751 152.419 30.0937 151.713 29.8927C151.006 29.6916 150.269 29.4806 149.502 29.2594C148.856 29.0785 148.21 28.8775 147.564 28.6564C146.918 28.4352 146.332 28.1639 145.807 27.8422C145.302 27.5206 144.888 27.1085 144.565 26.6059C144.263 26.0832 144.111 25.4299 144.111 24.6459C144.111 23.9423 144.252 23.3191 144.535 22.7764C144.838 22.2336 145.262 21.7712 145.807 21.3893C146.352 21.0073 147.008 20.7259 147.776 20.545C148.563 20.344 149.431 20.2434 150.38 20.2434C151.39 20.2434 152.268 20.354 153.015 20.5751C153.782 20.7963 154.418 21.1079 154.923 21.5099C155.428 21.912 155.801 22.3743 156.044 22.897C156.286 23.3995 156.407 23.9423 156.407 24.5253C156.407 24.6459 156.407 24.7665 156.407 24.8871C156.407 24.9876 156.397 25.0681 156.377 25.1284H153.772V24.7967C153.772 24.3946 153.661 24.0127 153.439 23.6508C153.237 23.2689 152.874 22.9673 152.349 22.7462C151.844 22.505 151.137 22.3844 150.229 22.3844C149.643 22.3844 149.139 22.4346 148.715 22.5351C148.291 22.6155 147.937 22.7563 147.655 22.9573C147.372 23.1382 147.16 23.3593 147.019 23.6207C146.877 23.8619 146.807 24.1433 146.807 24.465C146.807 24.9876 146.978 25.3897 147.321 25.6711C147.665 25.9526 148.119 26.1837 148.684 26.3647C149.27 26.5456 149.896 26.7466 150.562 26.9677C151.269 27.1688 151.985 27.3799 152.712 27.601C153.459 27.802 154.136 28.0633 154.741 28.385C155.367 28.7066 155.862 29.1489 156.225 29.7117C156.609 30.2545 156.801 30.9782 156.801 31.8828C156.801 32.7271 156.639 33.4609 156.316 34.0841C155.993 34.7072 155.529 35.2199 154.923 35.6219C154.338 36.024 153.641 36.3154 152.833 36.4964C152.046 36.6974 151.178 36.7979 150.229 36.7979Z" fill="#0000FF"/>
</g>
</g>
<defs>
<clipPath id="clip0_652_42853">
<rect width="159" height="49" fill="white"/>
</clipPath>
</defs>
</svg>

<svg xmlns="http://www.w3.org/2000/svg" width="159" height="49" fill="none" viewBox="0 0 159 49"><g clip-path="url(#a)"><mask id="b" width="159" height="49" x="0" y="0" maskUnits="userSpaceOnUse" style="mask-type:luminance"><path fill="#fff" d="M159 0H0v49h159z"/></mask><g fill="#00f" mask="url(#b)"><path d="M24.656 0H12.328v12.144h12.328zm12.328 0H24.656v12.144h12.328zM12.328 12.142H0v12.144h12.328z"/><path d="M12.328 0H0v12.144h12.328zm12.328 24.29H12.328v12.143h12.328zM12.328 36.43H0v12.145h12.328zM47.91 5.35h-.854v37.46h.854zm23.363 31.448q-5.028 0-7.663-2.623-2.604-2.624-2.604-8.082 0-3.558 1.211-5.94t3.574-3.558q2.362-1.206 5.754-1.206 2.12 0 3.847.452 1.725.452 2.968 1.387a5.9 5.9 0 0 1 1.938 2.292q.696 1.387.696 3.287h-2.937q0-1.328-.485-2.262a4 4 0 0 0-1.393-1.568q-.878-.603-2.06-.844a11.2 11.2 0 0 0-2.513-.272q-1.818 0-3.24.453-1.424.451-2.393 1.417-.97.964-1.484 2.472-.516 1.509-.515 3.589v.633q0 2.805.848 4.553.877 1.749 2.514 2.563 1.635.784 3.937.784 2.332 0 3.846-.633 1.515-.664 2.241-1.99.757-1.327.757-3.347v-.362h-7.329v-2.442h10.237v10.885h-2.18l-.304-2.623a6.9 6.9 0 0 1-1.938 1.718 8.4 8.4 0 0 1-2.483.965 13 13 0 0 1-2.847.302m18.229 0q-.879 0-1.757-.211a5.4 5.4 0 0 1-1.635-.694 3.5 3.5 0 0 1-1.212-1.327q-.454-.874-.454-2.17 0-1.629.787-2.684.788-1.056 2.181-1.629 1.424-.603 3.362-.814a34 34 0 0 1 4.21-.24v-1.81q0-.875-.303-1.508-.304-.633-1.09-.965-.758-.362-2.181-.362-1.364 0-2.18.362-.79.332-1.121.875a2.43 2.43 0 0 0-.303 1.206v.452H85.23q-.03-.15-.03-.301v-.362q0-1.448.788-2.413.818-.994 2.271-1.477 1.455-.513 3.331-.513 2 0 3.332.573 1.362.573 2.029 1.628.697 1.056.697 2.533v8.594q0 .574.272.814.273.212.666.212h1.181v1.748a5.7 5.7 0 0 1-.938.302q-.516.15-1.181.15-.788 0-1.303-.33a2 2 0 0 1-.787-.845 4.2 4.2 0 0 1-.364-1.267h-.212a5.5 5.5 0 0 1-1.393 1.327 6.8 6.8 0 0 1-1.847.844 8 8 0 0 1-2.241.302m.666-2.232q.97 0 1.817-.301a5 5 0 0 0 1.545-.844 4.3 4.3 0 0 0 1.06-1.357 3.8 3.8 0 0 0 .393-1.719v-1.327q-2.453 0-4.179.272-1.726.27-2.665.965-.909.693-.909 1.96 0 .813.364 1.326.363.513 1.03.784.665.241 1.544.241m11.839 1.87v-15.86h2.151l.242 2.381h.212q.606-.965 1.363-1.568a4.9 4.9 0 0 1 1.665-.874 6.2 6.2 0 0 1 1.969-.302q1.545 0 2.665.633 1.12.604 1.666 2.111h.182q.574-.965 1.332-1.538a5.3 5.3 0 0 1 1.696-.904 6.5 6.5 0 0 1 1.999-.302q1.453 0 2.544.513 1.09.483 1.696 1.628.636 1.117.636 3.016v11.066h-2.665V25.792q0-.965-.242-1.598-.213-.634-.636-.965a2.5 2.5 0 0 0-1-.513 4.4 4.4 0 0 0-1.181-.15q-1.06 0-1.969.542-.878.543-1.423 1.568-.545 1.026-.545 2.443v9.317h-2.665V25.792q0-.965-.243-1.598-.242-.634-.636-.965a2.24 2.24 0 0 0-.969-.513q-.545-.15-1.151-.15-1.09 0-2.029.542-.908.543-1.453 1.568-.546 1.026-.546 2.443v9.317zm32.416.362q-2.362 0-3.997-.875-1.605-.904-2.453-2.744-.819-1.84-.818-4.673 0-2.865.818-4.674.848-1.84 2.483-2.714 1.635-.905 4.089-.905 2.241 0 3.755.875 1.515.844 2.271 2.563.788 1.689.788 4.252v1.266H129.91q.06 1.9.545 3.136.515 1.206 1.514 1.78 1 .541 2.514.542 1.03 0 1.787-.241.787-.272 1.302-.754.546-.483.818-1.146.273-.664.303-1.447h2.604a6.4 6.4 0 0 1-.484 2.352 4.9 4.9 0 0 1-1.333 1.809q-.878.753-2.15 1.176t-2.908.422m-4.452-9.62h8.632q0-1.326-.303-2.23-.303-.905-.878-1.478a3.05 3.05 0 0 0-1.303-.814q-.726-.272-1.665-.272-1.393 0-2.363.513-.968.512-1.484 1.568-.514 1.055-.636 2.714m20.258 9.62q-1.636 0-2.877-.332-1.242-.331-2.06-.965a4.2 4.2 0 0 1-1.241-1.507q-.424-.875-.424-1.99v-.272q0-.15.03-.241h2.635a1 1 0 0 0-.031.21v.182q.03 1.055.546 1.658.545.603 1.484.845.938.24 2.089.24 1 0 1.848-.24.847-.272 1.332-.784.515-.543.515-1.357 0-.995-.666-1.508-.637-.543-1.696-.844-1.06-.301-2.211-.634a36 36 0 0 1-1.938-.603 8.8 8.8 0 0 1-1.757-.814 4 4 0 0 1-1.242-1.236q-.454-.784-.454-1.96 0-1.056.424-1.87a4.2 4.2 0 0 1 1.272-1.387q.817-.573 1.969-.844a10.5 10.5 0 0 1 2.604-.302q1.515 0 2.635.332 1.15.332 1.908.935.757.603 1.121 1.387.363.754.363 1.628v.362q0 .15-.03.241h-2.605v-.331q0-.603-.333-1.146-.303-.573-1.09-.905-.758-.362-2.12-.362-.879 0-1.514.151-.636.12-1.06.422-.424.271-.636.664a1.63 1.63 0 0 0-.212.844q0 .784.514 1.206.516.423 1.363.694.879.27 1.878.603 1.06.3 2.15.633a9.7 9.7 0 0 1 2.029.784 3.8 3.8 0 0 1 1.484 1.327q.576.814.576 2.17 0 1.268-.485 2.202a4.1 4.1 0 0 1-1.393 1.538q-.878.603-2.09.874-1.18.302-2.604.302"/></g></g><defs><clipPath id="a"><path fill="#fff" d="M0 0h159v49H0z"/></clipPath></defs></svg>
